icons/zap-24.svg

<svg width="24" height="24" viewBox="0 0 24 24" fill="none" xmlns="http://www.w3.org/2000/svg">
<path fill-rule="evenodd" clip-rule="evenodd" d="M16.1676 2.9242L4.50988 13.0613C4.33539 13.2131 4.4427 13.5 4.67392 13.5H10.1249C10.3763 13.5 10.6109 13.6259 10.7499 13.8354C10.8889 14.0448 10.9137 14.3099 10.816 14.5415L8.25705 20.6071L19.4716 10.9394C19.6472 10.788 19.5401 10.5 19.3084 10.5H13.9999C13.7468 10.5 13.5108 10.3723 13.3723 10.1605C13.2337 9.94868 13.2114 9.68127 13.3128 9.44939L16.1676 2.9242ZM15.716 1.32912C15.96 1.11688 16.2726 1 16.596 1C17.5632 1 18.2124 1.99265 17.8248 2.87874L15.1467 9H19.3084C20.9307 9 21.6798 11.0162 20.451 12.0755L8.10198 22.7212C7.89336 22.9011 7.62707 23 7.35162 23C6.52939 23 5.97319 22.1617 6.29279 21.4041L8.99452 15H4.67392C3.05536 15 2.30424 12.9915 3.52561 11.9294L15.716 1.32912Z" fill="black"/>
</svg>

<svg xmlns="http://www.w3.org/2000/svg" width="24" height="24" viewBox="0 0 24 24"><path fill-rule="evenodd" d="M16.168 2.924L4.51 13.061a.25.25 0 00.164.439h5.45a.75.75 0 01.692 1.041l-2.559 6.066 11.215-9.668a.25.25 0 00-.164-.439H14a.75.75 0 01-.687-1.05l2.855-6.526zm-.452-1.595a1.341 1.341 0 012.109 1.55L15.147 9h4.161c1.623 0 2.372 2.016 1.143 3.075L8.102 22.721a1.149 1.149 0 01-1.81-1.317L8.996 15H4.674c-1.619 0-2.37-2.008-1.148-3.07l12.19-10.6z"/></svg>
